X: 29685
T: Not Tuscany
R: reel
M: 4/4
K: Dmajor
|:ABBA d3f|edef A2 dc|ABBd ~A3 d|cd e2-edce|
d2 ed ~f3e|edcd ~A3D|EFGB ~A3d|1 cd d2-d ~B3:|2 cdec d2 ef||
|:~g3f fe e2-|edcd A2 fg|a3g gf f2|feed ~d2 ef|
~g3f fe e2-|edcd A2 BA|FABA d3f|1 edce d2ef:|2 edce d2 ed||

